dist/img/blog/article_logo.svg

<svg width="30" height="28" viewBox="0 0 30 28" fill="none" xmlns="http://www.w3.org/2000/svg">
<path d="M24.0107 12.914C26.2191 12.914 27.8816 11.994 29.1074 10.3923L27.4691 9.14235C27.0644 9.67569 26.5414 10.1078 25.9412 10.4045C25.3411 10.7012 24.6802 10.8546 24.0107 10.8524C21.6141 10.8524 19.8774 8.89984 19.8774 6.504C19.8774 4.10817 21.5857 2.04569 24.0791 2.04569C25.1874 2.04569 25.9707 2.30735 26.6541 2.73068V4.83734H28.7157V1.76569L28.3207 1.45484C27.1874 0.563177 25.4566 0.0898438 24.0099 0.0898438C20.4732 0.0898438 17.5966 2.96652 17.5966 6.50319C17.5966 10.0365 20.4724 12.914 24.0107 12.914ZM28.2882 25.564L28.2149 22.6115V15.4065H23.9149V17.469H26.0432V22.3574C26.0432 24.4632 24.4349 25.954 22.8124 25.954C21.1899 25.954 20.3432 24.829 20.3432 22.724V15.4057H16.3266V17.4682H18.1716V23.0815C18.1716 25.9382 19.7732 27.9065 22.6299 27.9065C24.2716 27.9065 25.5216 26.9957 26.2674 25.5915H26.3007L26.5949 27.5548H29.8991V25.5665H28.2907V25.5624L28.2882 25.564ZM17.1216 0.392349H13.5382L10.4216 9.44234H10.3732L7.27323 0.392349H3.4549V2.45567H5.6024L9.29823 12.7707H11.2616V12.7682L15.1157 2.45651H17.1199V0.393188L17.1216 0.392349ZM0.101562 27.5815H2.2249V25.459H0.102396V27.5815H0.101562ZM8.30156 17.7982H8.27823L8.1449 15.4065H4.3549V17.2865H6.37156V25.5648H4.3549V27.554H13.7216V25.604H8.50656V20.6082C8.7424 18.7999 10.0982 17.2557 11.9482 17.2557H11.9816L11.9441 19.104H14.0057V15.3723H12.3757C10.5091 15.3673 9.12406 16.3773 8.30073 17.799L8.30156 17.7982Z" fill="#2a2a2a"/>
</svg>

<svg width="30" height="28" viewBox="0 0 30 28" fill="none" xmlns="http://www.w3.org/2000/svg"><path d="M24.01 12.914c2.21 0 3.872-.92 5.097-2.522l-1.638-1.25a4.323 4.323 0 01-3.458 1.71c-2.397 0-4.134-1.952-4.134-4.348s1.709-4.458 4.202-4.458c1.108 0 1.892.261 2.575.685v2.106h2.062V1.766l-.395-.311C27.187.563 25.457.09 24.01.09a6.42 6.42 0 00-6.413 6.413 6.42 6.42 0 006.414 6.411zm4.278 12.65l-.073-2.953v-7.205h-4.3v2.063h2.128v4.888c0 2.106-1.608 3.597-3.23 3.597-1.623 0-2.47-1.125-2.47-3.23v-7.318h-4.016v2.062h1.845v5.613c0 2.857 1.601 4.826 4.458 4.826 1.642 0 2.892-.911 3.637-2.316h.034l.294 1.964h3.304v-1.988h-1.608v-.005l-.003.002zM17.122.392h-3.584l-3.116 9.05h-.049l-3.1-9.05H3.455v2.064h2.147L9.298 12.77h1.964v-.003l3.854-10.311h2.004V.393h.002zM.102 27.582h2.123v-2.123H.102v2.122zm8.2-9.784h-.024l-.133-2.391h-3.79v1.88h2.017v8.278H4.355v1.989h9.367v-1.95H8.507v-4.996c.235-1.808 1.591-3.352 3.441-3.352h.034l-.038 1.848h2.062v-3.732h-1.63c-1.867-.005-3.252 1.005-4.075 2.427z" fill="#2a2a2a"/></svg>
